icons/file_type_pipeline.svg

<svg version="1.1" viewBox="0 0 32 32" xmlns="http://www.w3.org/2000/svg">
  <path fill="#f57f17" d="M20,23 L11.86,23 C11.7609757,22.6493104 11.616411,22.3131134 11.43,22 L22,11.43 C22.6019656,11.7993928 23.293741,11.9965488 24,12 C26.0803346,12.0067496 27.8185594,10.4177446 27.9980602,8.34515757 C28.177561,6.27257049 26.7384074,4.4083819 24.6878883,4.05737018 C22.6373692,3.70635845 20.6600973,4.98571688 20.14,7 L11.86,7 C11.356433,5.04969328 9.48121328,3.77807479 7.48299948,4.03188121 C5.48478569,4.28568764 3.98701665,5.98573188 3.98701665,8 C3.98701665,10.0142681 5.48478569,11.7143124 7.48299948,11.9681188 C9.48121328,12.2219252 11.356433,10.9503067 11.86,9 L20.14,9 C20.2390243,9.35068963 20.383589,9.68688662 20.57,10 L10,20.57 C9.39803439,20.2006072 8.70625898,20.0034512 8,20 C5.91966537,19.9932504 4.18144061,21.5822554 4.00193981,23.6548424 C3.822439,25.7274295 5.26159259,27.5916181 7.31211167,27.9426298 C9.36263076,28.2936415 11.3399027,27.0142831 11.86,25 L20,25 L20,28 L28,28 L28,20 L20,20 L20,23 Z M8,10 C6.8954305,10 6,9.1045695 6,8 C6,6.8954305 6.8954305,6 8,6 C9.1045695,6 10,6.8954305 10,8 C10,8.53043298 9.78928632,9.03914081 9.41421356,9.41421356 C9.03914081,9.78928632 8.53043298,10 8,10 Z M24,6 C25.1045695,6 26,6.8954305 26,8 C26,9.1045695 25.1045695,10 24,10 C22.8954305,10 22,9.1045695 22,8 C22,6.8954305 22.8954305,6 24,6 Z M8,26 C6.8954305,26 6,25.1045695 6,24 C6,22.8954305 6.8954305,22 8,22 C9.1045695,22 10,22.8954305 10,24 C10,25.1045695 9.1045695,26 8,26 Z M22,22 L26,22 L26,26 L22,26 L22,22 Z" />
</svg>

<svg xmlns="http://www.w3.org/2000/svg" viewBox="0 0 32 32"><path fill="#f57f17" d="M20 23h-8.14a4.17 4.17 0 0 0-.43-1L22 11.43a3.86 3.86 0 0 0 2 .57 4 4 0 1 0-3.86-5h-8.28a4 4 0 1 0 0 2h8.28c.099.35.244.687.43 1L10 20.57A3.86 3.86 0 0 0 8 20a4 4 0 1 0 3.86 5H20v3h8v-8h-8v3ZM8 10a2 2 0 1 1 0-4 2 2 0 0 1 0 4Zm16-4a2 2 0 1 1 0 4 2 2 0 0 1 0-4ZM8 26a2 2 0 1 1 0-4 2 2 0 0 1 0 4Zm14-4h4v4h-4v-4Z"/></svg>
